usr/share/icons/biglinux-icons-material/scalable/apps/geogebra.svg

<svg width="24" height="24" viewBox="0 0 24 24" fill="none" xmlns="http://www.w3.org/2000/svg">
<path fill-rule="evenodd" clip-rule="evenodd" d="M9.59604 1.11359C9.71588 1.11486 9.83043 1.0996 9.93969 1.06779C11.3755 0.973736 12.8111 0.977551 14.2467 1.07924C15.5484 1.18066 16.8085 1.46308 18.0269 1.9265C20.0525 2.76044 21.4386 4.2069 22.185 6.26586C22.6119 7.50549 22.8639 8.78021 22.9411 10.09C23.0478 11.7347 23.0096 13.3758 22.8265 15.0133C22.6895 16.1642 22.3917 17.271 21.933 18.3336C21.0824 20.1761 19.704 21.447 17.7978 22.1463C16.2531 22.6682 14.6647 22.943 13.0325 22.9706C11.1966 23.0661 9.37913 22.9287 7.57997 22.5585C4.26839 21.8208 2.22559 19.8018 1.45158 16.5017C1.12311 15.0161 0.974199 13.5124 1.00483 11.9906C0.968176 10.3724 1.14 8.77709 1.52031 7.20471C2.33171 4.11908 4.2905 2.20701 7.39669 1.46852C8.12049 1.29157 8.8536 1.17326 9.59604 1.11359Z" fill="url(#paint0_radial_8_73)"/>
<path d="M9.53158 5.90384C5.55281 7.35119 3.36528 11.2188 4.65903 14.5256C5.95436 17.8333 10.2466 19.3452 14.2238 17.8978C18.2 16.4505 20.3901 12.5802 19.0937 9.27033C17.7989 5.96255 13.5062 4.45282 9.52896 5.89964M9.97664 7.03718C13.2173 5.85666 16.6787 7.07598 17.7318 9.76571C18.7844 12.4533 17.0226 15.5755 13.7793 16.7556C10.5365 17.9361 7.07355 16.7152 6.02303 14.0244C4.96989 11.3373 6.73439 8.21666 9.97716 7.03666" fill="#666666"/>
<path d="M12.7308 6.03856C12.7308 6.88726 12.041 7.57713 11.1923 7.57713C10.3436 7.57713 9.65372 6.88726 9.65372 6.03856C9.65372 5.18986 10.3436 4.5 11.1923 4.5C12.041 4.5 12.7308 5.18986 12.7308 6.03856ZM19.5 8.49974C19.5 9.34844 18.8101 10.0383 17.9614 10.0383C17.1127 10.0383 16.4229 9.34844 16.4229 8.49974C16.4229 7.65104 17.1127 6.96118 17.9614 6.96118C18.8101 6.96118 19.5 7.65104 19.5 8.49974ZM18.2691 15.2694C18.2691 16.1181 17.5793 16.808 16.7306 16.808C15.8819 16.808 15.192 16.1181 15.192 15.2694C15.192 14.4207 15.8819 13.7308 16.7306 13.7308C17.5793 13.7308 18.2691 14.4207 18.2691 15.2694ZM10.2691 17.7306C10.2691 18.5793 9.57929 19.2692 8.73059 19.2692C7.88189 19.2692 7.19202 18.5793 7.19202 17.7306C7.19202 16.8819 7.88189 16.192 8.73059 16.192C9.57929 16.192 10.2691 16.8819 10.2691 17.7306ZM6.57712 11.5769C6.57712 12.4256 5.88726 13.1154 5.03856 13.1154C4.18986 13.1154 3.5 12.4256 3.5 11.5769C3.5 10.7282 4.18986 10.0383 5.03856 10.0383C5.88726 10.0383 6.57712 10.7282 6.57712 11.5769Z" fill="#9999FF"/>
<defs>
<radialGradient id="paint0_radial_8_73" cx="0" cy="0" r="1" gradientUnits="userSpaceOnUse" gradientTransform="translate(12 1) rotate(90) scale(22)">
<stop stop-color="#F9F9F9"/>
<stop offset="1" stop-color="#CCCCCC"/>
</radialGradient>
</defs>
</svg>

<svg xmlns="http://www.w3.org/2000/svg" width="24" height="24" fill="none"><path fill="url(#a)" fill-rule="evenodd" d="M9.596 1.114c.12 0 .234-.014.344-.046a31.627 31.627 0 0 1 4.307.011c1.301.102 2.561.384 3.78.848 2.025.833 3.412 2.28 4.158 4.339.427 1.24.679 2.514.756 3.824a27.94 27.94 0 0 1-.114 4.923 11.876 11.876 0 0 1-.894 3.32c-.85 1.843-2.229 3.114-4.135 3.813a15.624 15.624 0 0 1-4.765.825 21.423 21.423 0 0 1-5.453-.413c-3.312-.737-5.354-2.756-6.128-6.056a19.047 19.047 0 0 1-.447-4.511 18.491 18.491 0 0 1 .515-4.786c.812-3.086 2.77-4.998 5.877-5.736a13.954 13.954 0 0 1 2.199-.355Z" clip-rule="evenodd"/><path fill="#666" d="M9.532 5.904c-3.98 1.447-6.167 5.315-4.873 8.622 1.295 3.307 5.588 4.82 9.565 3.372 3.976-1.447 6.166-5.318 4.87-8.628-1.295-3.307-5.588-4.817-9.565-3.37m.448 1.137c3.24-1.18 6.702.039 7.755 2.729 1.052 2.687-.71 5.81-3.953 6.99-3.242 1.18-6.705-.04-7.756-2.732-1.053-2.687.711-5.807 3.954-6.987"/><path fill="#99F" d="M12.73 6.039a1.54 1.54 0 0 1-1.538 1.538A1.54 1.54 0 0 1 9.654 6.04c0-.85.69-1.539 1.538-1.539.849 0 1.539.69 1.539 1.539Zm6.77 2.46a1.54 1.54 0 0 1-1.539 1.54 1.54 1.54 0 0 1-1.538-1.54c0-.848.69-1.538 1.538-1.538.85 0 1.539.69 1.539 1.539Zm-1.23 6.77a1.54 1.54 0 0 1-1.54 1.539 1.54 1.54 0 0 1-1.538-1.539 1.54 1.54 0 0 1 3.077 0Zm-8 2.462a1.54 1.54 0 0 1-1.54 1.538 1.54 1.54 0 0 1-1.538-1.538 1.54 1.54 0 0 1 3.077 0Zm-3.693-6.154a1.54 1.54 0 0 1-1.538 1.538A1.54 1.54 0 0 1 3.5 11.577a1.54 1.54 0 0 1 3.077 0Z"/><defs><radialGradient id="a" cx="0" cy="0" r="1" gradientTransform="matrix(0 22 -22 0 12 1)" gradientUnits="userSpaceOnUse"><stop stop-color="#F9F9F9"/><stop offset="1" stop-color="#CCC"/></radialGradient></defs></svg>
